X: 15
T: Health To The Ladies
R: jig
M: 6/8
L: 1/8
K: Amaj
|: f|ecA BAF|AFE EFA|Bdc BAB|cBB B2f|
ecA BAF|AFE EFA|Bdc BAB|cAA A2:|
|: A|cee dff|cee ecA|cee dff|ecA B2A|
cee dff|cee ecA|Bdc BAB|1 cAA A2:|2 cAA A3 |]
F: https://thesession.org/tunes/327#setting327

